icons/inbox-star.svg

<svg xmlns="http://www.w3.org/2000/svg" width="24" height="24" viewBox="0 0 24 24">
  <path d="M6,16 L6.11662113,16.0067277 C6.61395981,16.0644928 7,16.4871642 7,17 C7,18.5976809 8.24891996,19.9036609 9.82372721,19.9949073 L10,20 L14,20 L14.1762728,19.9949073 C15.6927538,19.9070404 16.9070404,18.6927538 16.9949073,17.1762728 L17,17 L17.0067277,16.8833789 C17.0600494,16.424297 17.424297,16.0600494 17.8833789,16.0067277 L18,16 L22,16 L22,20 C22,21.1045695 21.1045695,22 20,22 L4,22 C2.8954305,22 2,21.1045695 2,20 L2,16 L6,16 Z M20,2 C21.1045695,2 22,2.8954305 22,4 L22,14 L18,14 L17.8237272,14.0050927 C16.24892,14.0963391 15,15.4023191 15,17 C15,17.5128358 14.6139598,17.9355072 14.1166211,17.9932723 L14,18 L10,18 L9.88337887,17.9932723 C9.42429701,17.9399506 9.06004937,17.575703 9.00672773,17.1166211 L9,17 L8.99490731,16.8237272 C8.90704038,15.3072462 7.69275384,14.0929596 6.17627279,14.0050927 L6,14 L2,14 L2,4 C2,2.8954305 2.8954305,2 4,2 L20,2 Z M12.2212829,6.18140769 C11.973656,6.05919655 11.6738431,6.16086605 11.551632,6.40849288 L11.551632,6.40849288 L10.6774832,8.17971176 L8.72282709,8.46373992 C8.61400857,8.47955217 8.51343737,8.53079576 8.43668307,8.60953758 C8.24393246,8.80727937 8.24797861,9.123836 8.4457204,9.31658661 L8.4457204,9.31658661 L9.86012284,10.6952882 L9.52622772,12.6420462 C9.50763929,12.750425 9.52529663,12.861909 9.57646617,12.9592393 C9.70496657,13.2036616 10.0072801,13.2976348 10.2517024,13.1691344 L10.2517024,13.1691344 L12,12.25 L13.7482976,13.1691344 C13.8456278,13.220304 13.9571118,13.2379613 14.0654907,13.2193729 C14.3376589,13.1726924 14.5204528,12.9142144 14.4737723,12.6420462 L14.4737723,12.6420462 L14.1398772,10.6952882 L15.5542796,9.31658661 C15.6330214,9.23983231 15.684265,9.1392611 15.7000773,9.03044258 C15.7397861,8.75717015 15.5504453,8.50344873 15.2771729,8.46373992 L15.2771729,8.46373992 L13.3225168,8.17971176 L12.448368,6.40849288 C12.3997029,6.30988657 12.3198892,6.23007281 12.2212829,6.18140769 Z"/>
</svg>

<svg xmlns="http://www.w3.org/2000/svg" viewBox="0 0 24 24">
  <path d="M6 16h.12A1 1 0 0 1 7 17a3 3 0 0 0 2.82 3h4.36a3 3 0 0 0 2.81-2.82L17 17v-.12a1 1 0 0 1 .88-.87L18 16h4v4a2 2 0 0 1-2 2H4a2 2 0 0 1-2-2v-4h4zM20 2a2 2 0 0 1 2 2v10h-4.18A3 3 0 0 0 15 17a1 1 0 0 1-.88 1H9.88a1 1 0 0 1-.87-.88L9 17v-.18a3 3 0 0 0-2.82-2.81L6 14H2V4c0-1.1.9-2 2-2h16zm-7.78 4.18a.5.5 0 0 0-.67.23l-.87 1.77-1.96.28a.5.5 0 0 0-.27.86l1.41 1.38-.33 1.94a.5.5 0 0 0 .72.53l1.75-.92 1.75.92a.5.5 0 0 0 .72-.53l-.33-1.94 1.41-1.38a.5.5 0 0 0-.27-.86l-1.96-.28-.87-1.77a.5.5 0 0 0-.23-.23z"/>
</svg>
